X:1
T:The Church
T:The Church
T:Barney E. Warren, pub.1900
T:Charles W. Naylor
T:PUBLIC DOMAIN
C:Barney E. Warren, pub.1900
Z:Charles W. Naylor
Z:PUBLIC DOMAIN
%%score ( 1 2 ) 3
L:1/8
Q:3/8=60
M:6/8
K:F
V:1 treble nm="Treble"
V:2 treble 
V:3 bass nm="Bass"
V:1
 C | [CF]2 C [FA]2 F | [Fc]2 [FB] [FA]2 z | [FA] [FG]F [Fd] [Fc][FA] | [EG]3 [Ec]2 | C | %6
w: 1.~The|church of God from|heav- en came,|Je- sus, her glo- ri- ous|Foun- der,|Hath|
w: 2.~As|wide as earth her|boun- da- ry,|Up- ward she reach- es to|heav- en,|The|
w: 3.~The|pil- lar and the|ground of truth,|Built with- out hand of a|mor- tal;|No|
 [CF]2 C [FA]2 F | [Fc]2 [FB] [FA]2 z | [FA] [FG]F [Fc]2 [FA] | [EG]3 F3 | %10
w: dressed her in cel-|es- tial robes,|Gird- ed His truth a-|round her,|
w: fa- vor of the|Lord is hers,|Free- ly in love ’tis|giv- en;|
w: man with heart by|sin de- filed|Stand- eth with- in her|por- tal;|
 [DF] [DF] [DF] [=B,A] [B,G] [B,F] | [CE]3 [CE]2 z | [CE] [CE] [CE] [CG] [CF] [CE] | %13
w: Clothed her in won- der- ful|beau- ty,|Taught her the path- way of|
w: Thus by His mer- cy se-|cur- ing,|Her- i- tage ev- er en-|
w: None but the pure and the|ho- ly,|Hum- ble, and meek, and the|
 [CF]3 [CF]2 z | [FA] [FA] [FA] [Ac] [FA] [FA] | [FB]3 [FB]2 [FB] | [FA] [EG]F [CE] [CD][CE] | %17
w: du- ty,|Keeps her each mo- ment se-|cure- ly, Her|foes He casts down to the|
w: dur- ing,|God by His prom- ise as-|sur- ing That|she shall for- ev- er pre-|
w: low- ly,|Dwell in the light of her|glo- ry, The|Lord is her Judge and her|
 [CF]3 [CF]2 |] %18
w: ground. *|
w: vail. *|
w: King. *|
V:2
 C | z2 C z2 F | x6 | z z F z3 | x5 | C | z2 C z2 F | x6 | z z F z3 | z3 (F2 _E) | x6 | x6 | x6 | %13
 x6 | x6 | x6 | z z F z3 | x5 |] %18
V:3
 [F,A,] | [F,A,]2 [F,A,] [F,C]2 [F,A,] | [F,A,]2 [F,D] [F,C]2 z | %3
 [F,C] [F,B,] [F,A,] [F,B,] [F,A,] [F,C] | [C,C]3 [C,B,]2 | [E,B,] | [F,A,]2 [F,A,] [F,C]2 [F,A,] | %7
 [F,A,]2 [F,D] [F,C]2 z | [F,C] [F,B,] [F,A,] [F,A,]2 [F,C] | [C,B,]3 [F,A,]3 | %10
 [D,A,] [D,A,] [D,A,] [D,F,] [D,F,] [D,F,] | [C,G,]3 [C,G,]2 z | %12
 [C,B,] [C,B,] [C,B,] [C,B,] [C,A,] [C,G,] | [F,A,]3 [F,A,]2 z | %14
 [F,C] [F,C] [F,C] [F,_E] [F,E] [F,E] | [B,,D]3 [B,,D]2 [B,,D] | %16
 [C,C] [C,B,] [C,A,] [C,B,] [C,B,] [C,B,] | [F,,F,A,]3 [F,,F,A,]2 |] %18

